components/Common/Svg/svgs/search.svg

<svg width="40" height="40" viewBox="0 0 40 40" fill="none" xmlns="http://www.w3.org/2000/svg">
<path fill-rule="evenodd" clip-rule="evenodd" d="M5.86392 17.9809C5.86392 11.2884 11.2895 5.86293 17.9825 5.86293C24.6754 5.86293 30.101 11.2884 30.101 17.9809C30.101 21.3068 28.761 24.3198 26.5914 26.5095C26.5771 26.5227 26.5629 26.5362 26.549 26.5501C26.5352 26.5639 26.5218 26.5779 26.5087 26.5922C24.3192 28.76 21.3072 30.0988 17.9825 30.0988C11.2895 30.0988 5.86392 24.6734 5.86392 17.9809ZM27.438 29.2977C24.878 31.4387 21.5808 32.7274 17.9825 32.7274C9.83792 32.7274 3.23535 26.1252 3.23535 17.9809C3.23535 9.83654 9.83792 3.23436 17.9825 3.23436C26.127 3.23436 32.7296 9.83654 32.7296 17.9809C32.7296 21.5806 31.4397 24.8791 29.297 27.4394L36.1796 34.3217C36.6929 34.8349 36.6929 35.6671 36.1797 36.1804C35.6664 36.6936 34.8343 36.6937 34.321 36.1804L27.438 29.2977Z" fill="#161616"/>
</svg>

<svg width="40" height="40" viewBox="0 0 40 40" fill="none" xmlns="http://www.w3.org/2000/svg"><path fill-rule="evenodd" clip-rule="evenodd" d="M5.864 17.98c0-6.692 5.426-12.117 12.119-12.117 6.692 0 12.118 5.425 12.118 12.118a12.079 12.079 0 0 1-3.593 8.611 12.08 12.08 0 0 1-8.525 3.507c-6.694 0-12.12-5.426-12.12-12.118Zm21.574 11.317a14.688 14.688 0 0 1-9.455 3.43c-8.145 0-14.748-6.602-14.748-14.746 0-8.145 6.603-14.747 14.748-14.747 8.144 0 14.747 6.602 14.747 14.747 0 3.6-1.29 6.898-3.433 9.458l6.883 6.882a1.314 1.314 0 1 1-1.859 1.86l-6.883-6.884Z" fill="#161616"/></svg>
